X:1
T:Title
%%score { ( 1 3 ) | ( 2 4 ) }
L:1/8
M:4/4
K:C
V:1 treble nm="Grand Piano"
V:3 treble 
V:2 bass 
V:4 bass 
V:1
 z4 z2[Q:1/4=100] [CE][DF] | [EG][EG][_E^F][EA] [=EG]2 [CE][D=F] | %2
[M:3/4] [EG][EG] [_E^F][EA] [=EG]2 |[M:1/4] [EG][Ec] |[M:4/4] [FB]6 z2 |[M:3/4] [EG]6 | %6
[M:1/4] E[DF] |[M:4/4] [EG][EG][_E^F][EA] [=EG]2 [CE][D=F] |[M:3/4] [EG][EG] [_E^F][EA] [=EG]2 | %9
[M:1/4] [EG][Ec] |[M:4/4] [FB]6 z2 |[M:3/4] c6 |[M:1/4] e>d | %13
[M:4/4] [Ec]2 [EG]>[_E^F] [=EG]2 [CE][D=F] | [EG]2 [_EA]>[E^F] [=EG]2 [CE][D=F] | %15
[M:3/4] [EG]2 [EA][EB] [Ec]2 |[M:1/4] [Fd][FB] |[M:4/4] [^Fc]2 [FB][Fc] d2 e>d | %18
 [Ec]2 [EG]>[_E^F] [=EG]2 [CE][D=F] |[M:3/4] [EG]2 [_EA]>[E^F] [=EG]2 |[M:1/4] [EG][Ec] | %21
[M:4/4] [FB]6 z2 |[M:7/4] c6 z2 z2 z4 |] %23
V:2
 z4 z2 [C,G,][C,G,] | [C,C][C,C][C,A,][C,^F,] [C,G,]2 [C,G,][C,G,] | %2
[M:3/4] [C,C][C,C] [C,A,][C,^F,] [C,G,]2 |[M:1/4] [C,G,][C,G,] | %4
[M:4/4] [G,,G,]2 G,,G,, G,,2 G,,G,, |[M:3/4] C,2 C,C, C,2 |[M:1/4] [C,G,C][C,G,] | %7
[M:4/4] [C,C][C,C][C,A,][C,^F,] [C,G,]2 [C,G,][C,G,] |[M:3/4] [C,C][C,C] [C,A,][C,^F,] [C,G,]2 | %9
[M:1/4] [C,G,][C,G,] |[M:4/4] [G,,G,]2 G,,G,, G,,2 G,,[G,,G,] |[M:3/4] G,2 z2 z2 | %12
[M:1/4][K:treble] [G,G]>[G,F] |[M:4/4][K:bass] [C,G,]2 [C,C]>[C,C] [C,C]2 [C,G,][C,G,] | %14
 [C,C]2 [C,^F,]>[C,A,] [C,C]2 [C,G,][C,G,] |[M:3/4] [C,C]2 [C,C][C,G,] [C,G,]2 | %16
[M:1/4] [B,,G,][D,G,] |[M:4/4] [D,A,]2 [D,D][D,A,][K:treble] [G,B,F]2 [G,B,G]>[G,B,F] | %18
 [C,C]2 [C,C]>[C,C] [C,C]2 [C,G,][C,G,] |[M:3/4] [C,C]2 [C,^F,]>[C,A,] [C,C]2 | %20
[M:1/4] [C,G,][C,G,] |[M:4/4] [G,,G,]2 G,,G,, G,,2 G,,[G,,G,] |[M:7/4] G,2 z2 z2 z2 z2 z4 |] %23
V:3
 x8 | x8 |[M:3/4] x6 |[M:1/4] x2 |[M:4/4] z2 DD D2 [B,DF][B,FA] |[M:3/4] C2 CC C2 |[M:1/4] x2 | %7
[M:4/4] x8 |[M:3/4] x6 |[M:1/4] x2 |[M:4/4] z2 DD D2 [B,FG][Fd] |[M:3/4] E2 FF E2 |[M:1/4] x2 | %13
[M:4/4] x8 | x8 |[M:3/4] x6 |[M:1/4] x2 |[M:4/4] x8 | x8 |[M:3/4] x6 |[M:1/4] x2 | %21
[M:4/4] z2 DD D2 [B,FG][Fd] |[M:7/4] E2 FF E2 z2 z2 z4 |] %23
V:4
 x8 | x8 |[M:3/4] x6 |[M:1/4] x2 |[M:4/4] x8 |[M:3/4] x6 |[M:1/4] x2 |[M:4/4] x8 |[M:3/4] x6 | %9
[M:1/4] x2 |[M:4/4] x8 |[M:3/4] C,2- [C,-A,][C,-^G,] [C,=G,]2 |[M:1/4][K:treble] x2 | %13
[M:4/4][K:bass] x8 | x8 |[M:3/4] x6 |[M:1/4] x2 |[M:4/4] x4[K:treble] x4 | x8 |[M:3/4] x6 | %20
[M:1/4] x2 |[M:4/4] x8 |[M:7/4] C,2- [C,-A,][C,-^G,] [C,=G,]2 z2 z2 z4 |] %23

